svg/fluentui-system-icons/ic_fluent_cloud_link_20_filled.svg

<svg width="20" height="20" viewBox="0 0 20 20" fill="none" xmlns="http://www.w3.org/2000/svg">
<path d="M14.6469 8.24599C14.4145 5.92329 12.8166 4 10 4C7.18335 4 5.58687 5.90802 5.35314 8.24599L5.28207 8.24599C3.46942 8.24599 2 9.75792 2 11.623C2 13.4881 3.46942 15 5.28205 15H9.03544C9.01209 14.8367 9 14.6698 9 14.5C9 12.567 10.567 11 12.5 11H16.5C17.032 11 17.5364 11.1187 17.9879 11.3311C17.8441 9.60269 16.435 8.24599 14.7179 8.24599L14.6469 8.24599ZM12.5 12C11.1193 12 10 13.1193 10 14.5C10 15.8807 11.1193 17 12.5 17H13C13.2761 17 13.5 16.7761 13.5 16.5C13.5 16.2239 13.2761 16 13 16H12.5C11.6716 16 11 15.3284 11 14.5C11 13.6716 11.6716 13 12.5 13H13C13.2761 13 13.5 12.7761 13.5 12.5C13.5 12.2239 13.2761 12 13 12H12.5ZM16 12C15.7239 12 15.5 12.2239 15.5 12.5C15.5 12.7761 15.7239 13 16 13H16.5C17.3284 13 18 13.6716 18 14.5C18 15.3284 17.3284 16 16.5 16H16C15.7239 16 15.5 16.2239 15.5 16.5C15.5 16.7761 15.7239 17 16 17H16.5C17.8807 17 19 15.8807 19 14.5C19 13.1193 17.8807 12 16.5 12H16ZM12.5 14C12.2239 14 12 14.2239 12 14.5C12 14.7761 12.2239 15 12.5 15H16.5C16.7761 15 17 14.7761 17 14.5C17 14.2239 16.7761 14 16.5 14H12.5Z" fill="#212121"/>
</svg>

<svg xmlns="http://www.w3.org/2000/svg" width="20" height="20"><path d="M14.647 8.246C14.415 5.923 12.817 4 10 4S5.587 5.908 5.353 8.246h-.07C3.468 8.246 2 9.758 2 11.623 2 13.488 3.47 15 5.282 15h3.753a3.5 3.5 0 0 1 3.465-4h4c.532 0 1.036.119 1.488.331-.144-1.728-1.553-3.085-3.27-3.085h-.071ZM12.5 12a2.5 2.5 0 0 0 0 5h.5a.5.5 0 0 0 0-1h-.5a1.5 1.5 0 0 1 0-3h.5a.5.5 0 0 0 0-1h-.5Zm3.5 0a.5.5 0 0 0 0 1h.5a1.5 1.5 0 0 1 0 3H16a.5.5 0 0 0 0 1h.5a2.5 2.5 0 0 0 0-5H16Zm-3.5 2a.5.5 0 0 0 0 1h4a.5.5 0 0 0 0-1h-4Z"/></svg>
